X:1
T:Title
%%score 1 { 2 | 3 }
L:1/8
Q:1/4=200
M:none
K:C
V:1 treble nm="Alto" snm="A"
V:2 treble-8 nm="Tenor I" snm="T"
V:3 treble-8 
V:1
"^Laetamini in Domino""^Psalm 31 (32): 11" A8 E4 E4 | D8 F8 | E4 E4 D8 | %3
w: Lae- ta- mi-|ni in|Do- mi- no,|
 F8 G4"^Giovanni Maria Nanini\n (1544-1607)" G4 |[M:4/2] A8 c8 | =B4 B4 A8 | c8 d8 | G8 A8 | %8
w: lae- ta- mi-|ni in|Do- mi- no,|et e-|xul- ta-|
 G8 d8 | c8 d8 | G8 F8 | _B8 A8 | D8 E8 | G8 A8 | (c8 B8) | (A8 G8) | %16
w: te ius-|* ti,|et glo-|ri- a-|mi- ni|om- nes|re\- *|cti *|
[Q:1/4=195] (F8[Q:1/4=188] E8 |[Q:1/4=180] D8[Q:1/4=173] E8) |[Q:1/4=170] !fermata!D16 |] %19
w: cor\- *||de.|
V:2
 z16 | z8 d4 d2 d2 | c4 A4 _B4 B4 | F8 z8 |[M:4/2][K:treble-8] z8 a4 a2 a2 | g4 e4 (f6 ed | %6
w: |Lae- ta- mi-|ni in Do- mi-|no,|lae- ta- mi-|ni in Do\- * *|
 e4) e4 d8 | z4 g4 f2 d2 f2 f2 | e8 d8 | z2 g2 g2 g2 (a4 f4- | f2 ed) e4 (f2 F2 A4) | %11
w: * mi- no,|et e- xul- ta- te|ius- ti,|et e- xul- ta\- *|* * * te ius\- * *|
 G8 z2 c2 c2 c2 | _B2 G2 B4 A8 | z8 z4 e4 | e2 e2 f4 d4 e4 | c4 d4 B4 c4 | (A4 _B4 G4 A4) | %17
w: ti, et e- xul-|ta- te ius- ti,|et|glo- ri- a- mi- ni|om- nes re- cti|cor\- * * *|
 D4 (d8 ^c4) | !fermata!d16 |] %19
w: de, cor\- *|de.|
V:3
 z16 | z16 | z8 d4 d2 d2 | c4 A4 _B4 B4 |[M:4/2][K:treble-8] F8 z8 | z8 a4 a2 a2 | g4 e4 (f6 ed | %7
w: ||Lae- ta- mi-|ni in Do- mi-|no,|lae- ta- mi-|ni in Do- * *|
 e4) e4 d8 | z4 g4 f2 d2 f2 f2 | e8 d8 | z2 g2 g2 g2 (a4 f4- | f2 ed) e4 (f2 F2 A4) | %12
w: * mi- no,|et e- xul- ta- te|ius- ti,|et e- xul- ta\- *|* * * te ius\- * *|
 G8 z2 c2 c2 c2 | _B2 G2 B4 A8 | z8 z4 e4 | e2 e2 f4 d4 e4 | c4 d4 B4 c4 | (A4 _B4 G4 A4) | %18
w: ti, et e- xul-|ta- te ius- ti,|et|glo- ri- a- mi- ni|om- nes re- cti|cor\- * * *|
"^2-" !fermata!D16 |] %19
w: de.|

